Sources/FrostedUI/Resources/Icons.xcassets/atom16.imageset/atom-16.svg

<svg width="16" height="16" viewBox="0 0 16 16" fill="none" xmlns="http://www.w3.org/2000/svg" data-fui-icon="true">
  <path
    d="M11.9199 1.07336C12.5966 0.985093 13.5376 1.04161 14.248 1.75208C14.9585 2.46261 15.0151 3.40352 14.9268 4.0802C14.8349 4.78346 14.5554 5.52234 14.1953 6.22961C13.8996 6.81038 13.5197 7.42194 13.0732 8.047C13.5194 8.6718 13.8987 9.28288 14.1943 9.8634C14.5545 10.5708 14.8339 11.3094 14.9258 12.0128C15.0142 12.6894 14.9584 13.6303 14.248 14.3409C13.5374 15.0516 12.5957 15.108 11.9189 15.0197C11.2157 14.9277 10.4768 14.6483 9.76953 14.2882C9.18888 13.9925 8.57807 13.6124 7.95312 13.1661C7.32817 13.6125 6.71737 13.9925 6.13672 14.2882C5.42946 14.6483 4.69057 14.9277 3.9873 15.0197C3.31059 15.1081 2.36891 15.0525 1.6582 14.3419C0.947553 13.6313 0.892097 12.6896 0.980469 12.0128C1.07242 11.3095 1.35178 10.5707 1.71191 9.8634C2.00755 9.28288 2.38682 8.67179 2.83301 8.047C2.38653 7.42186 2.00669 6.81044 1.71094 6.22961C1.35082 5.52234 1.0714 4.78346 0.979492 4.0802C0.891179 3.40348 0.947664 2.46164 1.6582 1.7511C2.36871 1.04095 3.30974 0.985062 3.98633 1.07336C4.68962 1.16525 5.42844 1.44468 6.13574 1.80481C6.71641 2.10048 7.32818 2.47959 7.95312 2.9259C8.57802 2.47964 9.18989 2.10045 9.77051 1.80481C10.4777 1.44474 11.2167 1.16524 11.9199 1.07336ZM3.79785 9.28821C2.57636 11.1055 2.09969 12.6623 2.71875 13.2814C3.3379 13.9002 4.89388 13.4225 6.71094 12.2013C6.20102 11.7734 5.68951 11.3088 5.19043 10.8097C4.69115 10.3104 4.22589 9.79832 3.79785 9.28821ZM12.1074 9.28821C11.6794 9.79823 11.215 10.3105 10.7158 10.8097C10.2166 11.3089 9.70445 11.7733 9.19434 12.2013C11.0117 13.4229 12.5684 13.8995 13.1875 13.2804C13.806 12.661 13.3287 11.1052 12.1074 9.28821ZM7.95312 4.80969C7.38962 5.26552 6.81585 5.77999 6.25098 6.34485C5.68603 6.90981 5.17169 7.48342 4.71582 8.047C5.17158 8.6104 5.68623 9.1834 6.25098 9.74817C6.81574 10.3129 7.38973 10.8266 7.95312 11.2823C8.5164 10.8267 9.09064 10.3138 9.65527 9.74915C10.22 9.18444 10.7337 8.61035 11.1895 8.047C10.7336 7.48343 10.2202 6.90881 9.65527 6.34387C9.09049 5.77911 8.51655 5.26545 7.95312 4.80969ZM8 7.00012C8.55227 7.00015 9 7.44785 9 8.00012C8.99992 8.55232 8.55222 9.0001 8 9.00012C7.44777 9.00012 7.00008 8.55234 7 8.00012C7 7.44784 7.44772 7.00012 8 7.00012ZM6.71191 3.89172C4.89446 2.67004 3.33796 2.19369 2.71875 2.81262C2.09999 3.43181 2.57647 4.98771 3.79785 6.80481C4.22585 6.29473 4.6912 5.78354 5.19043 5.2843C5.68978 4.78496 6.20173 4.31981 6.71191 3.89172ZM13.1875 2.81262C12.5684 2.19351 11.0118 2.67 9.19434 3.89172C9.70443 4.31974 10.2166 4.78408 10.7158 5.28333C11.215 5.78254 11.6794 6.29474 12.1074 6.80481C13.3289 4.98754 13.8063 3.43182 13.1875 2.81262Z"
    fill="currentColor"
  />
</svg>

<svg xmlns="http://www.w3.org/2000/svg" width="16" height="16" fill="none" data-fui-icon="true" viewBox="0 0 16 16"><path fill="currentColor" d="M11.92 1.073c.677-.088 1.618-.031 2.328.68.71.71.767 1.65.679 2.327-.092.703-.372 1.442-.732 2.15-.295.58-.675 1.192-1.122 1.817.446.625.826 1.236 1.121 1.816.36.708.64 1.446.732 2.15.088.676.032 1.617-.678 2.328s-1.652.767-2.33.679c-.702-.092-1.441-.372-2.148-.732a14.5 14.5 0 0 1-1.817-1.122c-.625.447-1.236.826-1.816 1.122-.708.36-1.446.64-2.15.732-.676.088-1.618.033-2.329-.678-.71-.71-.766-1.652-.678-2.33.092-.703.372-1.441.732-2.149.296-.58.675-1.191 1.121-1.816A14.5 14.5 0 0 1 1.711 6.23c-.36-.708-.64-1.447-.732-2.15-.088-.677-.031-1.618.68-2.329.71-.71 1.65-.766 2.327-.678.704.092 1.442.372 2.15.732.58.295 1.192.675 1.817 1.12a14.5 14.5 0 0 1 1.818-1.12c.707-.36 1.446-.64 2.149-.732M3.798 9.288c-1.222 1.817-1.698 3.374-1.08 3.993.62.62 2.176.141 3.993-1.08a24 24 0 0 1-1.52-1.391 24 24 0 0 1-1.393-1.522m8.31 0c-.429.51-.893 1.022-1.392 1.522-.5.499-1.012.963-1.522 1.391 1.818 1.222 3.374 1.698 3.993 1.08.619-.62.142-2.176-1.08-3.993M7.952 4.81a22 22 0 0 0-1.702 1.535 22 22 0 0 0-1.535 1.702c.456.563.97 1.136 1.535 1.701a22 22 0 0 0 1.702 1.534 22 22 0 0 0 3.237-3.235A22 22 0 0 0 7.953 4.81M8 7a1 1 0 1 1 0 2 1 1 0 0 1 0-2M6.712 3.892C4.894 2.67 3.338 2.194 2.719 2.812c-.619.62-.143 2.176 1.079 3.993a23.7 23.7 0 0 1 2.914-2.913m6.476-1.08c-.62-.618-2.176-.142-3.994 1.08.51.428 1.023.892 1.522 1.391.499.5.963 1.012 1.391 1.522 1.222-1.817 1.7-3.373 1.08-3.992"/></svg>
